X:1
T:Pas de Six, VI. Moderato
T:Pas de Six, VI. Moderato
T:Swan Lake, Piano Arrangement for 3 hands
T:Hinci
C:Hinci
%%score { ( 1 4 ) | 2 | 3 }
L:1/8
Q:1/4=78
M:4/4
K:Ab
V:1 treble nm="Piano" snm="Pno."
V:4 treble 
V:2 bass 
V:3 bass 
V:1
"^Moderato." z2!p!"_cresc." !arpeggio![C,=E,G,B,C=EGB]2[Q:1/4=82] !arpeggio![C,E,G,B,EGB=e]2[Q:1/4=85] !arpeggio![C,E,G,B,GBeg]2 | %1
[Q:1/4=88] !arpeggio![C,=E,G,B,B=egb]2[Q:1/4=91] !arpeggio![C=EGBcegc']2[Q:1/4=97] !arpeggio![CEGBegb=e']2[Q:1/4=105] !arpeggio![CEGBgbe'g']2 | %2
[Q:1/4=115]!mp!!<(! !arpeggio![c=egb=e'g'b']2[Q:1/4=120] !arpeggio![degbe'g'b']2[Q:1/4=125] !arpeggio![cegbe'g'b']2[Q:1/4=110] !arpeggio![degbe'g'b']2!<)! | %3
[Q:1/4=104]!f!!>(! !arpeggio![c=egb=e'g'b']2[Q:1/4=99] !arpeggio![degbe'g'b']2[Q:1/4=91] !arpeggio![cegbe'g'b']2[Q:1/4=88] !arpeggio![degbe'g'b']2!>)! | %4
[Q:1/4=60]!mf! !arpeggio![c=egb=e'g'b']2[Q:1/4=80]!>(! (19:12:19(b'/[Q:1/4=82]g'/[Q:1/4=84]e'/[Q:1/4=86]c'/[Q:1/4=88]b/[Q:1/4=90]g/[Q:1/4=94]e/[Q:1/4=98]c/[Q:1/4=102]B/[Q:1/4=106]G/[Q:1/4=110]=E/[I:staff +1]C/B,/G,/=E,/C,/B,,/G,,/=E,,/)!>)! | %5
!mp![I:staff -1] z8 ||[M:2/4]!mp! (D=E) .F.G | (A2 B).c | (d2 =e).f | (g2 a2) | (gf) .e.d | %11
 (c2 A).F | (c2 B).A | G4 | (D=E) .F.G | (A2 B).c | (d2 =e).f | (g2 a2) | (gf) .e.d | (c2 A).F | %20
 (c2 F).G | A4 |!mp! z2 c'2 | (b2 ag) | (a2 =ef) | (g=e c=d | =e) z c'2 | (b2 ag) | (a2 c=d | %29
 =e)!mf! ([Gce]!f![F=Bf]!mp![Gce]) |!mp! z2 c'2 | (b2 ag) | (a2 =ef) | (g=e c=d | =e) z c'2 | %35
 (b2 ag) | (a2 c=d | =e)!mf![Q:1/4=100] ([Gce]!f![Q:1/4=80][F=Bf][Q:1/4=60]!p![Gce]) | %38
!mp![Q:1/4=110] (D=E) .F.G | (A2 B).c | (d2 =e).f | (g2 a2) | (gf) .e.d | (c2 A).F | (c2 B).A | %45
 G4 | (D=E) .F.G | (A2 B).c | (d2 =e).f | (g2 a2) | %50
!ff!"^Più mosso."[Q:1/4=126] ([=Bf]/g/a/b/) ([ac']/a/f) | ([gc']/g/=e) ([ac']/a/f) | %52
 ([=Bf]/g/a/b/) ([ac']/a/f) | ([gc'=e']/c'/g) ([fc'f'][f=b]) | ([=Bf]/g/a/b/) ([ac']/a/f) | %55
 ([gc']/g/=e) ([ac']/a/f) | ([=Bf]/g/a/b/) ([ac']/a/f) | ([gc'=e']/c'/g) ([fc'f'][f=b]) | %58
 [f=b][fc'f'] [fc'f'][fb] | [f=b][fc'f'] [fc'f'][fb] | [f=b] [fc'f']2 [fb]- | [fb] [fc'f']2 [f=b] | %62
 [=dc'=d'][=ec'=e'] [fc'f'][gc'g'] |!8va(! [ac'f'a']2 [bf'a'][=bf'a'] | %64
 [c'=e'g']2 [=d'g'b'][e'g'b'] | [f'a']!8va)! z !fermata!z2 |] %66
V:2
 z2 z2 z2 z2 | z2 z2 z4 | z8 | z8 | z8 | %5
!>(! !fermata!C,,2 !fermata!D,,2 !fermata!=D,,2!>)!!pp! !fermata!=E,,2 || %6
[M:2/4][K:bass]!p! [F,,F,][B,D] [F,,F,][B,D=E] | [F,,F,][A,CF] [F,,F,][A,CF] | %8
 [F,,F,][B,DF] [F,,F,][B,DF] | [F,,F,][=B,=DF] [F,,F,][CFA] | F,[CFA] F,[CFA] | %11
 F,[CFA] =B,,[A,=D] | C,[A,CF] C,[A,CF] | C,[G,CF] C,[G,C=E] | [F,,F,][B,D] [F,,F,][B,D=E] | %15
 [F,,F,][A,CF] [F,,F,][A,CF] | [F,,F,][B,DF] [F,,F,][B,DF] | [F,,F,][=B,=DF] [F,,F,][CFA] | %18
 D,!8va(![DFB]!8va)! D,!8va(![DFB]!8va)! | E,[CEA] E,[A,CE] | E,[B,DE] E,[B,DE] | %21
 A,,[E,A,] [A,C][CE] | C,[G,CG] C,[G,CG] | C,[B,C=E] C,[B,CE] | C,[A,CF] C,[A,CF] | %25
 C,[G,C=E] C,[G,CE] | C,[G,CG] C,[G,CG] | C,[B,C=E] C,[B,CE] | C,[A,CF] C,[A,CF] | [G,C=E] (CDC) | %30
!p! C,[G,CG] C,[G,CG] | C,[B,C=E] C,[B,CE] | C,[A,CF] C,[A,CF] | C,[G,C=E] C,[G,CE] | %34
 C,[G,CG] C,[G,CG] | C,[B,C=E] C,[B,CE] | C,[A,CF] C,[A,CF] | [G,C=E] (CDC) | %38
!p! [F,,F,][B,D] [F,,F,][B,D=E] | [F,,F,][A,CF] [F,,F,][A,CF] | [F,,F,][B,DF] [F,,F,][B,DF] | %41
 [F,,F,][=B,=DF] [F,,F,][CFA] | F,[CFA] F,[CFA] | F,[CFA] =B,,[A,=D] | C,[A,CF] C,[A,CF] | %45
 C,[G,CF] C,[G,C=E] | [F,,F,][B,D] [F,,F,][B,D=E] | [F,,F,][A,CF] [F,,F,][A,CF] | %48
 [F,,F,][B,DF] [F,,F,][B,DF] | [F,,F,][=B,=DF] [F,,F,][CFA] | [D,D] z [C,C] z | %51
 [B,,B,] z [A,,A,] z | [D,D] z [C,C] z | [B,,B,] z [A,,A,]D, | [D,D] z [C,C] z | %55
 [B,,B,] z [A,,A,] z | [D,D] z [C,C] z | [B,,B,] z [A,,A,]D, | D,[A,,A,] [A,,A,]D, | %59
 D,[A,,A,] [A,,A,]D, | D, [A,,A,]2 [D,,D,]- | [D,,D,] [A,,A,]2 [D,,D,] | C,[C,,C,] [C,,C,][C,,C,] | %63
 [C,,C,]2 [C,,C,][C,,C,] | [C,,C,]2 [C,,C,][C,,C,] | [F,,F,] z !fermata!z2 |] %66
V:3
 z8 | z8 | z8 | z8 | z8 | z8 ||[M:2/4] z4 | z4 | z4 | z4 | z4 | z4 | z4 | z4 | z4 | z4 | z4 | z4 | %18
 z4 | z4 | z4 | z4 |[K:treble]!mp! (C=D =EF) | (G2 AB) | (c2 BA) | (G2 C2) | (C=D =EF) | (G2 AB) | %28
 (c2 BA | G) z z2 |!mp! (C=D =EF) | (G2 AB) | (c2 BA) | (G2 C2) | (C=D =EF) | (G2 AB) | (c2 BA | %37
 G) z z2 | z4 | z4 | z4 | z4 | z4 | z4 | z4 | z4 | z4 | z4 | z4 | z4 | [FA] z [FAc] z | %51
 [C=EGc] z [CFAc] z | [FA] z [FAc] z | [C=EGc] z [CFc][=B,F=B] | [FA] z [FAc] z | %55
 [C=EGc] z [CFAc] z | [FA] z [FAc] z | [C=EGc] z [CFc][=B,F=B] | [=B,F=B][CFc] [CFc][B,FB] | %59
 [=B,F=B][CFc] [CFc][B,FB] | [=B,F=B] [Fc]2 [FB]- | [FB] [Fc]2 [=B,F=B] | [=DAc][=EAc] [FAc][GAc] | %63
 [Ac]2 [FAB][FA=B] | [=EGc]2 [=DGB=d][EGB=e] | [FAcf] z !fermata!z2 |] %66
V:4
 x8 | x8 | x8 | x8 | x481/60 | x8 ||[M:2/4] x4 | x4 | x4 | x4 | x4 | x4 | x4 | x4 | x4 | x4 | x4 | %17
 x4 | x4 | x4 | x4 | x!p! [CE] [EA][Ac] | x4 | x4 | x4 | x4 | x4 | x4 | x4 | x4 | x4 | x4 | x4 | %33
 x4 | x4 | x4 | x4 | x4 | x4 | x4 | x4 | x4 | x4 | x4 | x4 | x4 | x4 | x4 | x4 | x4 | x4 | x4 | %52
 x4 | x4 | x4 | x4 | x4 | x4 | x4 | x4 | x4 | x4 | x4 |!8va(! x4 | x4 | x!8va)! x3 |] %66

